modules/hawcons-filled/icons/icon-51-laughing-face.svg

<?xml version="1.0" encoding="UTF-8" standalone="no"?>
<svg width="32px" height="32px" viewBox="0 0 32 32" version="1.1" xmlns="http://www.w3.org/2000/svg" xmlns:xlink="http://www.w3.org/1999/xlink" xmlns:sketch="http://www.bohemiancoding.com/sketch/ns">
    <!-- Generator: Sketch 3.0.3 (7891) - http://www.bohemiancoding.com/sketch -->
    <title>icon 51 laughing face</title>
    <desc>Created with Sketch.</desc>
    <defs></defs>
    <g id="Page-1" stroke="none" stroke-width="1" fill="none" fill-rule="evenodd" sketch:type="MSPage">
        <g id="icon-51-laughing-face" sketch:type="MSArtboardGroup" fill="#929292">
            <path d="M16.5,29 C23.4035597,29 29,23.4035597 29,16.5 C29,9.59644029 23.4035597,4 16.5,4 C9.59644029,4 4,9.59644029 4,16.5 C4,23.4035597 9.59644029,29 16.5,29 Z M18.6715729,13.7928932 L21.5,10.9644661 L24.3284271,13.7928932 L23.6213203,14.5 L21.5,12.3786797 L19.3786797,14.5 L18.6715729,13.7928932 Z M8.67157288,13.7928932 L11.5,10.9644661 L14.3284271,13.7928932 L13.6213203,14.5 L11.5,12.3786797 L9.37867966,14.5 L8.67157288,13.7928932 Z M9,19 C9,19 10,25 16.5,25 C23,25 24,19 24,19 L9,19 Z" id="laughing-face" sketch:type="MSShapeGroup"></path>
        </g>
    </g>
</svg>

<svg width="32" height="32" xmlns="http://www.w3.org/2000/svg"><path d="M16.5 29C23.404 29 29 23.404 29 16.5S23.404 4 16.5 4 4 9.596 4 16.5 9.596 29 16.5 29zm2.172-15.207l2.828-2.829 2.828 2.829-.707.707-2.121-2.121-2.121 2.121-.707-.707zm-10 0l2.828-2.829 2.828 2.829-.707.707-2.121-2.121L9.379 14.5l-.707-.707zM9 19s1 6 7.5 6 7.5-6 7.5-6H9z" fill="#929292" fill-rule="evenodd"/></svg>
